resources/svg/docker-o.svg

<svg xmlns="http://www.w3.org/2000/svg" viewBox="0 0 15 15" fill="none"><path d="M0.5 5.5V5H0V5.5H0.5ZM2.5 3.5V3H2V3.5H2.5ZM6.5 1.5V1H6V1.5H6.5ZM8.5 1.5H9V1H8.5V1.5ZM12.5 7.5H12V8H12.5V7.5ZM1 7.5V5.5H0V7.5H1ZM3 7.5V3.5H2V7.5H3ZM2.5 4H8.5V3H2.5V4ZM8 3.5V7.5H9V3.5H8ZM5 7.5V3.5H4V7.5H5ZM7 7.5V1.5H6V7.5H7ZM6.5 2H8.5V1H6.5V2ZM8 1.5V3.5H9V1.5H8ZM13.7361 10H15V9H13.7361V10ZM10 5V5.5H11V5H10ZM12 6.5V7.5H13V6.5H12ZM12.5 8H13.5V7H12.5V8ZM14 8.5V9.5H15V8.5H14ZM13.5 8C13.7761 8 14 8.22386 14 8.5H15C15 7.67157 14.3284 7 13.5 7V8ZM11.5 6C11.7761 6 12 6.22386 12 6.5H13C13 5.67157 12.3284 5 11.5 5V6ZM3 10H4V9H3V10ZM8.5 7H0.5V8H8.5V7ZM0 7.5V8.5H1V7.5H0ZM5.5 14H6.02786V13H5.5V14ZM6.02786 14C8.51265 14 10.8164 12.8096 12.2585 10.8496L11.4531 10.257C10.1974 11.9636 8.19126 13 6.02786 13V14ZM0 8.5C0 11.5376 2.46243 14 5.5 14V13C3.01472 13 1 10.9853 1 8.5H0ZM0.5 6H11.5V5H0.5V6ZM10 5.5C10 6.32843 9.32843 7 8.5 7V8C9.88071 8 11 6.88071 11 5.5H10ZM13.7361 9C12.7762 9 11.9673 9.55817 11.4531 10.257L12.2585 10.8496C12.6423 10.3281 13.1808 10 13.7361 10V9Z" fill="black"/></svg>

<svg xmlns="http://www.w3.org/2000/svg" viewBox="0 0 15 15" fill="none"><path d="M.5 5.5V5H0v.5h.5zm2-2V3H2v.5h.5zm4-2V1H6v.5h.5zm2 0H9V1h-.5v.5zm4 6H12V8h.5v-.5zM1 7.5v-2H0v2h1zm2 0v-4H2v4h1zM2.5 4h6V3h-6v1zM8 3.5v4h1v-4H8zm-3 4v-4H4v4h1zm2 0v-6H6v6h1zM6.5 2h2V1h-2v1zM8 1.5v2h1v-2H8zm5.736 8.5H15V9h-1.264v1zM10 5v.5h1V5h-1zm2 1.5v1h1v-1h-1zm.5 1.5h1V7h-1v1zm1.5.5v1h1v-1h-1zm-.5-.5a.5.5 0 01.5.5h1A1.5 1.5 0 0013.5 7v1zm-2-2a.5.5 0 01.5.5h1A1.5 1.5 0 0011.5 5v1zM3 10h1V9H3v1zm5.5-3h-8v1h8V7zM0 7.5v1h1v-1H0zM5.5 14h.528v-1H5.5v1zm.528 0a7.736 7.736 0 006.23-3.15l-.805-.593A6.737 6.737 0 016.028 13v1zM0 8.5A5.5 5.5 0 005.5 14v-1A4.5 4.5 0 011 8.5H0zM.5 6h11V5H.5v1zm9.5-.5A1.5 1.5 0 018.5 7v1A2.5 2.5 0 0011 5.5h-1zM13.736 9c-.96 0-1.769.558-2.283 1.257l.806.593c.383-.522.922-.85 1.477-.85V9z" fill="currentColor"/></svg>
